X: 5125
T: Bridgett's
R: reel
M: 4/4
K: Adorian
A2 a2 a2 ba|g2 ed e2 dB|G2 g2 g2 ag|e2 dB d2 BG|
A2 a2 a2 ba|g2 ed e2 eg|edBd e2 de|B2 A2 A2 E2:|
|:A2 AB cBcd|e2 dc B2 d2|G2 GABA Bc|d2 cB c2 e2|
A2 AB cBcd|e2 dc B2 G2|g2 ag edBd|e2 dB B2 A2:|

